X: 3192
T: An Honorable Peace.   a Reel.
C: Daniel Dow
%R: reel
B: Niel Gow & Sons "Complete Repository" v.3 p.19 #2
Z: 2021 John Chambers <jc:trillian.mit.edu>
M: C|
L: 1/8
K: Em
% - - - - - - - - - -
V: 1 staves=2
F |\
TE2B>G E2B,>E | D2F>D AFDF | E2B>G E2G>B | e>Bd>A BEE :| F | E2TB>A Bdef | {^c}d>B Ad FD AF |
E2TB>A Bde(g | f)>d AF BEE>F || E2TB.A Bdef | {c}d>B Ad FADF | GBEF TG.A B(g | f)>^d Bd eEE |]
% - - - - - - - - - -
V: 2 clef=bass middle=d
z | e2e2 e2e2 | d2d2 d2d2 | e2e2 e2e2 | B2B2 E2E :| z | e2e2 e2e2 | d2d2 d2d2 |
e2e2 e2e2 | B2B2 E2E2 || e2e2 e2e2 | d2d2 d2d2 | e2e2 e2g2 | a2b2 e2e |]


